symbols/web/hide_image/materialsymbolsrounded/hide_image_gradN25_40px.svg

<svg xmlns="http://www.w3.org/2000/svg" height="40" width="40"><path d="m34.75 30.25-2.625-2.625V7.875h-19.75L9.75 5.25h22.375q1.042 0 1.833.792.792.791.792 1.833Zm-2.333 6.208-1.75-1.708H7.875q-1.042 0-1.833-.792-.792-.791-.792-1.833V9.375L3.5 7.625q-.375-.375-.375-.917 0-.541.417-.958.375-.375.916-.375.542 0 .959.375l28.875 28.875q.375.417.375.937 0 .521-.375.896-.375.417-.938.417-.562 0-.937-.417Zm-13.792-9.25 1.958-2.541L7.875 12v20.125H28l-3.75-3.792H11.458q-.416 0-.604-.354-.187-.354.104-.729l3.375-4.417q.209-.291.521-.271.313.021.521.271Zm1.208-7.041Zm-1.875 1.875Z"/></svg>

<svg xmlns="http://www.w3.org/2000/svg" height="40" width="40"><path d="M34.75 30.25 32.125 27.625V7.875Q32.125 7.875 32.125 7.875Q32.125 7.875 32.125 7.875H12.375L9.75 5.25H32.125Q33.167 5.25 33.958 6.042Q34.75 6.833 34.75 7.875ZM32.417 36.458 30.667 34.75H7.875Q6.833 34.75 6.042 33.958Q5.25 33.167 5.25 32.125V9.375L3.5 7.625Q3.125 7.25 3.125 6.708Q3.125 6.167 3.542 5.75Q3.917 5.375 4.458 5.375Q5 5.375 5.417 5.75L34.292 34.625Q34.667 35.042 34.667 35.562Q34.667 36.083 34.292 36.458Q33.917 36.875 33.354 36.875Q32.792 36.875 32.417 36.458ZM18.625 27.208 20.583 24.667 7.875 12V32.125Q7.875 32.125 7.875 32.125Q7.875 32.125 7.875 32.125H28L24.25 28.333H11.458Q11.042 28.333 10.854 27.979Q10.667 27.625 10.958 27.25L14.333 22.833Q14.542 22.542 14.854 22.562Q15.167 22.583 15.375 22.833ZM19.833 20.167Q19.833 20.167 19.833 20.167Q19.833 20.167 19.833 20.167ZM17.958 22.042Q17.958 22.042 17.958 22.042Q17.958 22.042 17.958 22.042Z"/></svg>
